X:216
T:Comin' thro' the Rye (3x32)
C:A: Traditional Scottish.  B: Colin Hume, 2018.
M:4/4
R:Strathspey
L:1/8
S:Colin Hume's website,  colinhume.com  - chords can also be printed below the stave.
%%MIDI program 21     Accordion
%%MIDI chordprog 21   Accordion
%%MIDI bassprog 33    Electric Bass (finger)
Q:1/4=118
K:G treble
%%center To create a recording of 3 times through the dance complete with starting and ending chords.
[G,B,-D-G-]2 [D,,B,-D-G-]2 [G,,,G,,B,DG]2 z2 |: "G"D>D D<B "Am"A>G A<B | "D7"D<D E>D "G"G4 | "G"D>D d<B "Am"A>G A<B | "D7"D>D E<D "G"G4 |
"G"d>B G<B "D7"A>G A<B | "G7"d>B (3GBd "C"e3e | "G"d>B "Am"c>A "G/B"B>G "C"A>B | "D7"D<D E>D "G"G4 |
"D"F<A A>B "D7"A>F E<D | "G"G<B B>c "G7"B3B | "C"c>B ce "G"dB AG | "A7"E<A A>B"D"A4 |
"D"F<A A>B "D7"A>F E<D | "G"G<B B>c "G7"B3d | "C"e>c "G/B"d>B "Am"c>A "G"B>d |1 "D7"D<D E>D "G"G4 :| "D7"D<D E>D "G"G2-"A7"G2 |
%%MIDI program 71     Clarinet
%%MIDI chordprog 24   Acoustic Guitar (nylon)
%%MIDI bassprog 32    Acoustic Bass
K:D
|: "D"A,>A, A,<F "Em"E>D E<F | "A7"A,<A, B,>A, "D"D4 | "D"A,>A, A<F "Em"E>D E<F | "A7"A,>A, B,<A, "D"D4 |
"D"A>F D<F "A7"E>D E<F | "D7"A>F (3DFA "G"B3B | "D"A>F "Em"G>E "D/F#"F>D "G"E>F | "A7"A,<A, B,>A, "D"D4 |
"A"C<E E>F "A7"E>C B,<A, | "D"D<F F>G "D7"F3F | "G"G>F GB "D"AF ED | "E7"B,<E E>F"A"E4 |
"A"C<E E>F "A7"E>C B,<A, | "D"D<F F>G "D7"F3A | "G"B>G "D/F#"A>F "Em"G>E "D"F>A |1 "A7"A,<A, B,>A, "D"D4 :|2 "A7"A,<A, B,>A, "D7"D4 |
%%MIDI program 21     Accordion
%%MIDI chordprog 21   Accordion
%%MIDI bassprog 33    Electric Bass (finger)
K:G
|: "G"D>D D<B "Am"A>G A<B | "D7"D<D E>D "G"G4 | "G"D>D d<B "Am"A>G A<B | "D7"D>D E<D "G"G4 |
"G"d>B G<B "D7"A>G A<B | "G7"d>B (3GBd "C"e3e | "G"d>B "Am"c>A "G/B"B>G "C"A>B | "D7"D<D E>D "G"G4 |
"D"F<A A>B "D7"A>F E<D | "G"G<B B>c "G7"B3B | "C"c>B ce "G"dB AG | "A7"E<A A>B"D"A4 |
"D"F<A A>B "D7"A>F E<D | "G"G<B B>c "G7"B3d | "C"e>c "G/B"d>B "Am"c>A "G"B>d |1 "D7"D<D E>D "G"G4 :|2 "D7"D<D E>D [I:MIDI=gchordoff] [G,,G,B,DG] z3 | z [G,,G,B,DG]6 z |]

